assets/img/who-uses-login/icon-shield/icon-shield.svg

<?xml version="1.0" encoding="UTF-8"?>
<svg width="34px" height="34px" viewBox="0 0 34 34" version="1.1" xmlns="http://www.w3.org/2000/svg" xmlns:xlink="http://www.w3.org/1999/xlink">
    <title>icon-shield</title>
    <g id="icon-shield" stroke="none" stroke-width="1" fill="none" fill-rule="evenodd">
        <path d="M18.0615653,0.032779323 L17.93798,2.02895734 C17.6266015,2.0096796 17.3137582,2 16.9997285,2 L16.9997285,7.10542736e-15 C17.3549928,7.10542736e-15 17.7090508,0.0109548164 18.0615653,0.032779323 Z M20.1685932,0.296000948 L19.7968122,2.26114188 C19.4905392,2.20319871 19.1819874,2.15478262 18.8714753,2.11600947 L19.1192877,0.13142159 C19.4713445,0.175382362 19.8212391,0.230285733 20.1685932,0.296000948 Z M22.2371056,0.824817793 L21.6200606,2.72725188 C21.3232266,2.63097524 21.0232025,2.54399524 20.7203423,2.46647158 L21.2162957,0.528939587 C21.559917,0.616896915 21.9003241,0.715584391 22.2371056,0.824817793 Z M24.2380314,1.61806452 L23.3840974,3.42659897 C23.101558,3.29319261 22.8148509,3.16866128 22.5243541,3.05321557 L23.2629804,1.19460554 C23.592466,1.32554574 23.9176269,1.46677945 24.2380314,1.61806452 Z M26.0847285,2.63482731 L25.013354,4.3236602 C24.7493228,4.15616208 24.4801489,3.99695057 24.2062187,3.84628795 L25.1700611,2.09385884 C25.4805176,2.26461104 25.7855519,2.44503334 26.0847285,2.63482731 Z M27.8190188,3.89442537 L26.5445767,5.43578755 C26.3035823,5.23652654 26.0564774,5.04480253 25.8036388,4.86092659 L26.9799544,3.24343416 C27.2662967,3.45167558 27.5461255,3.66878944 27.8190188,3.89442537 Z M29.3899033,5.36910789 L27.9320771,6.73832039 C27.7180033,6.51039197 27.4969016,6.28913556 27.2691228,6.07490217 L28.6393547,4.61803412 C28.8972299,4.86057419 29.1475438,5.11106316 29.3899033,5.36910789 Z M30.7711532,7.04023759 L29.1519212,8.21415743 C28.9683513,7.96095253 28.7769184,7.71347421 28.5779335,7.47210002 L30.1211469,6.1999002 C30.3464714,6.47322506 30.5632569,6.75347846 30.7711532,7.04023759 Z M31.87081,8.76624367 L30.1225085,9.73755308 C29.9707049,9.46431523 29.8103766,9.19586539 29.6417877,8.9325896 L31.3260618,7.85406253 C31.5170867,8.15237519 31.6987695,8.45658056 31.87081,8.76624367 Z M32.7911053,10.7015902 L30.9341549,11.4443791 C30.8180776,11.1541892 30.6929258,10.8678049 30.558911,10.5856043 L32.3655415,9.72764966 C32.5175146,10.0476657 32.6594502,10.3724564 32.7911053,10.7015902 Z M33.4607683,12.7444789 L31.5244249,13.2450527 C31.4461683,12.942337 31.3584579,12.6424756 31.2614544,12.345823 L33.1624054,11.7242239 C33.2724632,12.0607986 33.3719793,12.401021 33.4607683,12.7444789 Z M33.8656157,14.8589993 L31.881345,15.1093388 C31.8421569,14.7987212 31.7933169,14.4900744 31.7349415,14.1837177 L33.6995929,13.8093587 C33.7657991,14.1568113 33.8211838,14.506818 33.8656157,14.8589993 Z M31.9997028,17.0280519 L31.9997191,16.9829948 C31.9993804,16.6786896 31.9899512,16.3755037 31.9715058,16.0736905 L33.9677811,15.9516871 L33.9914367,16.4653529 L33.9996994,17.031724 L31.9997028,17.0280519 Z M33.864185,19.1523104 L31.8800829,18.9006379 C31.9193501,18.5910683 31.9490183,18.2796233 31.9689891,17.9666031 L33.964931,18.093945 C33.9423076,18.4485424 33.9086896,18.801451 33.864185,19.1523104 Z M33.4641436,21.2424431 L31.5273998,20.7434205 C31.6052423,20.4413082 31.6736462,20.1364555 31.732474,19.8292004 L33.6967941,20.2052941 C33.6300607,20.5538399 33.5524579,20.8996886 33.4641436,21.2424431 Z M32.7993126,23.2778528 L30.9413905,22.5374977 C31.0569384,22.2475302 31.1633901,21.9538783 31.2605606,21.6569096 L33.1613913,22.2788764 C33.0511513,22.6157876 32.9303872,22.9489208 32.7993126,23.2778528 Z M31.8714672,25.2325732 L30.1230884,24.2614031 C30.2747741,23.9883262 30.4178884,23.7105712 30.5521936,23.4285217 L32.3579247,24.2883677 C32.2056527,24.6081486 32.0434096,24.9230287 31.8714672,25.2325732 Z M30.7435778,26.9976885 L29.127574,25.8193287 C29.31181,25.5666674 29.4881292,25.3083603 29.6562435,25.0447911 L31.3424399,26.1203104 C31.1519871,26.4189018 30.9522577,26.7115047 30.7435778,26.9976885 Z M29.3714595,28.6504987 L27.915786,27.2789978 C28.1302468,27.051375 28.3376021,26.817159 28.5375187,26.5767154 L30.0753854,27.8553733 C29.8490315,28.1276136 29.6142649,28.3927917 29.3714595,28.6504987 Z M27.7917236,30.1280956 L26.5204707,28.584102 C26.7619603,28.3852707 26.9972538,28.1789636 27.2259841,27.9655126 L28.5905156,29.4277212 C28.3315526,29.6693852 28.0651517,29.9029676 27.7917236,30.1280956 Z M26.0291353,31.4002901 L24.9642872,29.7073345 C25.2288422,29.5409327 25.488187,29.3662952 25.7419378,29.1837076 L26.9100714,30.8071187 C26.6226438,31.0139387 26.3288548,31.2117702 26.0291353,31.4002901 Z M24.2508559,32.3758736 L23.3954074,30.568055 C23.6779458,30.4343596 23.9562036,30.2918345 24.2297965,30.1407166 L25.1967854,31.8914114 C24.8866509,32.0627129 24.5711959,32.2242907 24.2508559,32.3758736 Z M22.2570877,33.1686874 L21.6376728,31.2670235 C21.9348944,31.1702118 22.2288065,31.0641072 22.5190414,30.9488946 L23.2569541,32.807788 C22.9277172,32.938483 22.5942872,33.0588539 22.2570877,33.1686874 Z M20.1739251,33.7029894 L19.8015129,31.737968 C20.1088879,31.6797141 20.4138735,31.6118809 20.716132,31.5346055 L21.2115188,33.4722824 C20.8686002,33.559953 20.5226034,33.6369077 20.1739251,33.7029894 Z M18.033039,33.9689628 L17.9127903,31.972581 C18.2256941,31.9537338 18.5370469,31.9252016 18.8465504,31.8870816 L19.0910331,33.8720824 C18.7402664,33.9152846 18.3874823,33.9476135 18.033039,33.9689628 Z M15.8735753,33.9631171 L16.0046865,31.9674192 C16.3160224,31.987873 16.6288467,31.9987255 16.9428797,31.9998942 L16.9354364,33.9998804 C16.5801358,33.9985581 16.2260692,33.9862748 15.8735753,33.9631171 Z M13.7655504,33.6915093 L14.145064,31.7278471 C14.4514551,31.7870628 14.7601572,31.8367345 15.0708496,31.8767449 L14.8154029,33.8603646 C14.463127,33.8149991 14.1130492,33.7586698 13.7655504,33.6915093 Z M11.6993222,33.1546019 L12.3238422,31.2546086 C12.6204648,31.3521072 12.9203101,31.4403095 13.223023,31.519054 L12.7195209,33.454638 C12.376066,33.3652954 12.0358621,33.2652212 11.6993222,33.1546019 Z M9.70288531,32.3541574 L10.5637321,30.5489032 C10.8457603,30.6833901 11.1319859,30.8090181 11.4220304,30.9255749 L10.6762767,32.7813366 C10.3473106,32.6491388 10.0227028,32.5066644 9.70288531,32.3541574 Z M7.86115228,31.3310444 L8.9388154,29.6462173 C9.20205053,29.81459 9.47045075,29.9747071 9.74363056,30.1263053 L8.77316828,31.8750771 C8.46356995,31.7032688 8.15941982,31.5218247 7.86115228,31.3310444 Z M6.12984201,30.0635763 L7.41019551,28.527121 C7.65048884,28.7273614 7.89692508,28.9200856 8.14912754,29.1049808 L6.96662173,30.7179532 C6.6810048,30.5085611 6.40193763,30.2903181 6.12984201,30.0635763 Z M4.56502879,28.5833045 L6.02805189,27.2196464 C6.24122429,27.4483519 6.46144892,27.670415 6.68837613,27.8854838 L5.31259999,29.3371174 C5.05568931,29.093632 4.80636837,28.8422297 4.56502879,28.5833045 Z M3.18943446,26.9059285 L4.81321743,25.7383117 C4.99569873,25.9920851 5.18605778,26.2401682 5.38398564,26.4821835 L3.83580555,27.7483345 C3.61167467,27.4742796 3.39610159,27.1933366 3.18943446,26.9059285 Z M2.09677543,25.1761263 L3.84882917,24.2116017 C3.99960117,24.4854783 4.15892042,24.7545952 4.32652448,25.0185663 L2.63810863,26.090598 C2.44819509,25.7914902 2.26765115,25.4865212 2.09677543,25.1761263 Z M1.18388793,23.2369017 L3.04373485,22.5013955 C3.15868156,22.7920569 3.28271818,23.0789423 3.41563489,23.3616738 L1.60566851,24.2125685 C1.45493723,23.8919429 1.31426326,23.5665769 1.18388793,23.2369017 Z M0.522490142,21.1923571 L2.46075491,20.6992753 C2.53783896,21.0022865 2.62438477,21.3024715 2.7202331,21.5994768 L0.816891097,22.2137155 C0.708143461,21.8767392 0.6099486,21.5361492 0.522490142,21.1923571 Z M0.125648655,19.0750222 L2.11088482,18.8324581 C2.14886443,19.1432975 2.19650239,19.4521913 2.2536834,19.7588212 L0.287577491,20.1254649 C0.222728056,19.7777134 0.168708451,19.4274398 0.125648655,19.0750222 Z M1.99996856,16.9143676 L1.9997365,17.0156077 C2.00002782,17.3008073 2.00830391,17.585026 2.02450403,17.8680556 L0.0277722141,17.982345 L0.0070012457,17.5007353 L1.42108547e-14,16.9031532 L1.99996856,16.9143676 Z M0.143477308,14.783969 L2.12661199,15.0431539 C2.08617575,15.3525489 2.05533526,15.6638439 2.03418987,15.9767376 L0.0387413581,15.841885 C0.0626969551,15.487408 0.0976453589,15.1346489 0.143477308,14.783969 Z M0.551427837,12.6955043 L2.48626018,13.2018874 C2.4073062,13.5035616 2.33777425,13.808001 2.277803,14.1148669 L0.314936089,13.731261 C0.382967914,13.38315 0.461851531,13.0377653 0.551427837,12.6955043 Z M1.22450898,10.6613475 L3.07954649,11.4089007 C2.96284108,11.6985027 2.85522348,11.9918207 2.75688042,12.2884861 L0.858469396,11.6591725 C0.970038454,11.3226091 1.09212345,10.9898594 1.22450898,10.6613475 Z M2.1605291,8.70911719 L3.90507781,9.68715084 C3.75221726,9.95981289 3.60792043,10.2371901 3.472427,10.5188978 L1.67006467,9.65201259 C1.82367997,9.33262726 1.98725947,9.01818357 2.1605291,8.70911719 Z M3.29364372,6.95072428 L4.90522695,8.13512266 C4.72005922,8.38707606 4.54278461,8.64470331 4.37369271,8.90762117 L2.69154906,7.82577425 C2.88310509,7.52792735 3.0839125,7.23610066 3.29364372,6.95072428 Z M4.67430987,5.30053998 L6.12457804,6.67775537 C5.9091366,6.90462464 5.70077927,7.13812105 5.4998409,7.37787941 L3.96698801,6.09321525 C4.19449651,5.82175358 4.43039571,5.55739227 4.67430987,5.30053998 Z M6.25807926,3.83061241 L7.52344906,5.37943108 C7.28125776,5.57729902 7.04523133,5.78266445 6.81573729,5.99519677 L5.45679096,4.52779606 C5.71662037,4.28717042 5.98385357,4.05465214 6.25807926,3.83061241 Z M8.02730546,2.56402464 L9.08546263,4.2611703 C8.82022303,4.42654514 8.56016414,4.60017925 8.30567016,4.78178857 L7.14392286,3.1538011 C7.43219854,2.94808484 7.72680322,2.75138546 8.02730546,2.56402464 Z M9.80641686,1.5969018 L10.6550371,3.40793568 C10.372091,3.54051948 10.0933934,3.68194345 9.81932778,3.8319724 L8.8589674,2.07763265 C9.16964543,1.90756134 9.48560688,1.747228 9.80641686,1.5969018 Z M11.804068,0.811347147 L12.4161653,2.71537887 C12.1185727,2.81104728 11.8242607,2.91601962 11.5335965,3.03011268 L10.8028269,1.16839955 C11.132556,1.03897254 11.466444,0.919884611 11.804068,0.811347147 Z M13.8901077,0.284902144 L14.254876,2.25135684 C13.9472787,2.30841474 13.6420436,2.37505685 13.3395073,2.45114761 L12.8516809,0.511553479 C13.1949105,0.425227966 13.5411847,0.349625765 13.8901077,0.284902144 Z M16.0315591,0.0272382011 L16.1441914,2.02406417 C15.8312136,2.0417179 15.5197626,2.06905571 15.2101356,2.10598155 L14.9732957,0.120054356 C15.3241827,0.0782078761 15.6770561,0.0472341853 16.0315591,0.0272382011 Z" id="bg-circle" fill="#CEDCED" fill-rule="nonzero"></path>
        <g id="shield" transform="translate(2.000000, 0.000000)">
            <path d="M27.4047806,4.90346395 L15.8185737,0.214670116 C15.4062173,0.0479574461 14.5513323,-0.170852933 13.585815,0.214670116 L1.99960815,4.90346395 C0.923458725,5.34108471 0.219435737,6.36219981 0.219435737,7.49792987 C0.219435737,19.1261386 7.1289185,27.1700249 13.585815,29.7853299 C14.5513323,30.1708529 15.3961599,29.9520426 15.8185737,29.7853299 C20.9780564,27.7014215 29.184953,20.4702595 29.184953,7.49792987 C29.184953,6.36219981 28.48093,5.34108471 27.4047806,4.90346395 Z" id="Path" fill="#0071BB"></path>
            <path d="M14.7021944,26.8965517 L14.7021944,3.10344828 L26.0815047,7.79664108 C25.4142362,18.7558125 18.8249602,24.8330568 14.7021944,26.8965517 L14.7021944,26.8965517 Z" id="Path" fill="#FFFFFF"></path>
        </g>
        <g id="checkmark" transform="translate(22.000000, 13.000000)">
            <circle id="Oval" fill="#3D9BDA" cx="6" cy="6" r="6"></circle>
            <path d="M4.62561355,9.75735732 L1.86311085,6.79374539 C1.69714487,6.61569714 1.69714487,6.32701213 1.86311085,6.14894608 L2.4641378,5.50414676 C2.63010379,5.3260807 2.89921538,5.3260807 3.06518136,5.50414676 L4.92613533,7.50055971 L8.91209137,3.22444528 C9.07805735,3.04639703 9.34716894,3.04639703 9.51313492,3.22444528 L10.1141619,3.86924459 C10.2801279,4.04729284 10.2801279,4.33597785 10.1141619,4.51404391 L5.2266571,9.75737513 C5.06067452,9.93542338 4.79157953,9.93542338 4.62561355,9.75735732 L4.62561355,9.75735732 Z" id="Path" fill="#FFFFFF" fill-rule="nonzero"></path>
        </g>
    </g>
</svg>

<svg width="34" height="34" xmlns="http://www.w3.org/2000/svg"><g fill="none" fill-rule="evenodd"><path d="M18.062.033l-.124 1.996C17.627 2.009 17.314 2 17 2V0c.355 0 .71.011 1.062.033zm2.107.263l-.372 1.965a14.927 14.927 0 00-.926-.145L19.12.131c.352.044.702.1 1.05.165zm2.068.529l-.617 1.902a14.86 14.86 0 00-.9-.26l.496-1.938c.344.088.684.187 1.021.296zm2.001.793l-.854 1.809c-.282-.134-.57-.258-.86-.374l.739-1.858c.33.13.655.272.975.423zm1.847 1.017l-1.072 1.689a15.012 15.012 0 00-.807-.478l.964-1.752c.31.17.616.351.915.54zm1.734 1.26l-1.274 1.54c-.241-.198-.489-.39-.741-.574l1.176-1.618c.286.209.566.426.839.651zm1.57 1.474l-1.457 1.37c-.214-.229-.435-.45-.663-.664l1.37-1.457c.258.243.509.493.75.751zm1.382 1.671l-1.62 1.174c-.183-.253-.374-.5-.573-.742L30.12 6.2c.225.273.442.553.65.84zm1.1 1.726l-1.748.972a15.016 15.016 0 00-.481-.805l1.684-1.079c.191.298.373.603.545.912zm.92 1.936l-1.857.742c-.116-.29-.241-.576-.375-.858l1.807-.858c.152.32.293.644.425.974zm.67 2.042l-1.937.501a14.86 14.86 0 00-.263-.9l1.901-.62c.11.336.21.676.299 1.02zm.405 2.115l-1.985.25c-.039-.31-.088-.619-.146-.925l1.965-.375c.066.348.121.698.166 1.05zM32 17.029v-.046c0-.304-.01-.607-.028-.91l1.996-.121.023.513.009.567-2-.004zm1.864 2.123l-1.984-.251c.04-.31.069-.621.089-.934l1.996.127c-.023.355-.056.707-.1 1.058zm-.4 2.09l-1.937-.499c.078-.302.147-.607.205-.914l1.965.376c-.067.349-.145.695-.233 1.037zm-.665 2.036l-1.858-.74c.116-.29.222-.584.32-.881l1.9.622c-.11.337-.23.67-.362.999zm-.928 1.955l-1.748-.972c.152-.273.295-.55.43-.832l1.805.86c-.152.32-.315.634-.487.944zm-1.127 1.765l-1.616-1.179c.184-.252.36-.51.528-.774l1.686 1.075c-.19.299-.39.592-.598.878zM29.37 28.65l-1.455-1.371c.214-.228.422-.462.622-.702l1.537 1.278c-.226.273-.46.538-.704.795zm-1.58 1.478l-1.27-1.544c.241-.199.476-.405.705-.618l1.365 1.462c-.26.241-.526.475-.8.7zM26.03 31.4l-1.065-1.693c.265-.166.524-.34.778-.523l1.168 1.623c-.287.207-.581.405-.88.593zm-1.778.976l-.856-1.808c.283-.134.561-.276.835-.427l.967 1.75c-.31.172-.626.333-.946.485zm-1.994.793l-.62-1.902c.298-.097.592-.203.882-.318l.738 1.859c-.33.13-.663.25-1 .36zm-2.083.534l-.372-1.965c.307-.058.612-.126.914-.203l.496 1.937c-.343.088-.69.165-1.038.231zm-2.141.266l-.12-1.996c.313-.02.624-.048.934-.086l.244 1.985c-.35.043-.704.076-1.058.097zm-2.16-.006l.132-1.996c.311.02.624.032.938.033l-.008 2a17.01 17.01 0 01-1.061-.037zm-2.107-.271l.38-1.964c.305.06.614.109.925.149l-.256 1.983a16.923 16.923 0 01-1.05-.168zm-2.067-.537l.625-1.9c.296.097.596.185.899.264l-.503 1.936a16.86 16.86 0 01-1.02-.3zm-1.996-.8l.86-1.806c.283.134.569.26.859.377l-.746 1.855a16.915 16.915 0 01-.973-.427zM7.86 31.33l1.078-1.685c.263.169.531.329.805.48l-.97 1.75c-.31-.173-.615-.354-.913-.545zm-1.73-1.266l1.28-1.537c.24.2.487.393.74.578l-1.183 1.613c-.286-.21-.565-.428-.837-.654zm-1.565-1.48l1.463-1.364c.213.228.433.45.66.665l-1.375 1.452a17.137 17.137 0 01-.748-.754zm-1.376-1.678l1.624-1.168c.183.254.373.502.571.744l-1.548 1.266a17.1 17.1 0 01-.647-.842zm-1.092-1.73l1.752-.964c.15.273.31.543.478.807L2.638 26.09c-.19-.3-.37-.604-.541-.915zm-.913-1.94l1.86-.735c.115.291.239.578.372.86l-1.81.852a16.91 16.91 0 01-.422-.976zm-.662-2.044l1.939-.493c.077.303.163.603.26.9l-1.904.615a16.86 16.86 0 01-.295-1.022zm-.396-2.117l1.985-.243c.038.311.086.62.143.927l-1.966.366a16.93 16.93 0 01-.162-1.05zM2 16.915v.1c0 .286.008.57.025.853l-1.997.114-.021-.481L0 16.903l2 .011zM.143 14.783l1.984.26c-.04.309-.072.62-.093.933L.04 15.842c.024-.355.059-.707.104-1.058zm.408-2.088l1.935.506c-.079.302-.148.606-.208.913L.315 13.73c.068-.348.147-.693.236-1.035zm.674-2.035l1.855.748c-.117.29-.225.583-.323.88l-1.899-.63c.112-.336.234-.67.367-.998zm.935-1.95l1.744.978c-.153.273-.297.55-.433.832L1.67 9.652c.154-.32.317-.634.49-.943zm1.133-1.758l1.611 1.184c-.185.252-.362.51-.531.773L2.692 7.826c.191-.298.392-.59.602-.875zm1.38-1.65l1.45 1.377c-.215.227-.423.46-.624.7L3.967 6.093c.227-.271.463-.536.707-.792zm1.584-1.47L7.522 5.38c-.242.198-.478.404-.707.616l-1.36-1.467c.26-.24.528-.473.802-.697zm1.77-1.267l1.057 1.697c-.265.166-.525.34-.78.52L7.145 3.155c.288-.206.583-.403.883-.59zm1.778-.967l.849 1.81c-.283.134-.562.275-.836.425l-.96-1.754c.31-.17.627-.33.947-.481zM11.804.81l.612 1.904c-.297.096-.592.201-.882.315l-.731-1.862c.33-.129.663-.248 1.001-.357zM13.89.285l.365 1.966a14.74 14.74 0 00-.915.2l-.488-1.94c.343-.086.69-.161 1.038-.226zm2.142-.258l.112 1.997c-.313.018-.624.045-.934.082L14.973.12c.351-.042.704-.073 1.059-.093z" fill="#CEDCED" fill-rule="nonzero"/><path d="M29.405 4.903L17.819.215a3.016 3.016 0 00-2.233 0L4 4.903c-1.077.438-1.78 1.46-1.78 2.595 0 11.628 6.909 19.672 13.366 22.287a3.02 3.02 0 002.233 0c5.16-2.084 13.366-9.315 13.366-22.287 0-1.136-.704-2.157-1.78-2.595z" fill="#0071BB"/><path d="M16.702 26.897V3.103l11.38 4.694c-.668 10.959-7.257 17.036-11.38 19.1z" fill="#FFF"/><g transform="translate(22 13)"><circle fill="#3D9BDA" cx="6" cy="6" r="6"/><path d="M4.626 9.757L1.863 6.794a.48.48 0 010-.645l.601-.645a.405.405 0 01.601 0l1.861 1.997 3.986-4.277a.405.405 0 01.601 0l.601.645a.48.48 0 010 .645L5.227 9.757a.405.405 0 01-.601 0z" fill="#FFF" fill-rule="nonzero"/></g></g></svg>
